X: 41058
T: Trip To Nenagh, The
R: reel
M: 4/4
K: Dmixolydian
|:~ddAG FADA|A,DFA d^cAG|Ad~dd A=fed|~=ccG cEcG^c|
~dd AG FADA|A,DFA dcAG|Ad~dd ADFA|GCEA FDD2:|
|:~ddfd Adfa|gfed ^cdec|~ddAd FdAG|FGAB cGBc|
Ad~dd Fd~dd|^cdef gefg|~aaea ^caed|^cABc d3z:|

